X: 10443
M: C|
L: 1/8
K: Bb
|:\
d<ff2 d<gg2 | d>cB>d cBG2 |
d<ff2 d<gg2 | d>Bc>d B2B2 |\
d<ff2 d<gg2 | d>cB>d c>BG>F |\


